-----BEGIN PGP PUBLIC KEY BLOCK-----

mQENBFG1+bQBCAC3p+fdi9+55LFuKPqW0XrQkQQ2CRfXcM5lqb6B4xQewLorsdX7
SRDmLzpdDZ9bCpqxMsiFbB+9lxljHNTzx9BIEO9w6aYtVgPsG4L9ZxwBXUTlgtIA
UoOy4lTQnUR0QDFlJQx8c4Cy82htOSCiWO4iaEvMbo+BGe8g4f2/N0tJOrnAc/xl
sdA64GTWId4NB12F+QeRgWWNQs/W/j/kyy37+L0juD06RMKth0uRMN37wEa9KcLa
lOBEUETrImZfx74wagt6WDnJknLf0ceqzfojk82po0C46BJAu49tLehYYKgo0HKZ
fK7CDw53y9SjkI8cU8g48AyUw8Uk/FyJeW1bABEBAAG0N0RhdmlkIEVkbXVuZHNv
biAoRGF2aWQgYXQgS0RFKSA8ZGF2aWRlZG11bmRzb25Aa2RlLm9yZz6JATgEEwEC
ACIFAlG1+bQCGwMGCwkIBwMCBhUIAgkKCwQWAgMBAh4BAheAAAoJEPVnVgXHTgLP
KD0H/0Cnj1bM6MYV5nKXJhLpd8as2OHFlhdtaU7QG3QcMVqdtP3rdOp1RgjmkYsB
xgwrxvDTLz0L/PH9UTCXjQeZgNR0hG8iy4IBC9ay0PDdkNpjnHoAiUMRstcDODUZ
QdLEOXCbPbRG3q0OlSaOvETL7YkSY8c2N6yqmWaJvudpJ0VVPyIWa2xT53JTXgAD
4m1w8MThAZBZpJi852nQCByCsRC+3cofA7bQd60XLiFWgmnq+rlqryMlWvUmMmat
e7U1NC5UsfH6ToXf/ZNZG+fMGE+ntYiHWRFr2tZMyXfUOrgHsAVMAE8v/xVtwS5e
VCAdM21GNG4d6XiF7T32GDzrEQm5AQ0EUbX5tAEIAL0uLkPxHbg9boIuVdahyy6F
BOcUf8xj3qj8FUGpRkcSSsoyvFTHZRTR+wwTPTaZzzzTFSITRGVv7vdKyl/A+SMw
/nlUVfB9xGvvCgzPGesUk9lmxX2DRVpoq9CyVIw0XXJQtNkC3O1yEws4zuDzHe99
sfDvXpA1ikfN+Hgn3oLjCHHtWuTyXGKXUimzToDMqWentVkP1rzKPlin9XJ0KDT/
axrrD9L5s4KCjHdWEQwG3miJDxQnlsAFDBj7Bs8DZZE+xdzx/l8qBKOxmXD9ohFp
4q0wXVV4QJMHtjhvhId9EN965drlYmMfusMCwavklBOWdR1MdSSBIYPS5eISmj0A
EQEAAYkBHwQYAQIACQUCUbX5tAIbDAAKCRD1Z1YFx04Cz4CzCACpN1l39Yzoniqx
laabcOrEbFjhKXlFXPm5TC+nj2iO8BieJLoltTcQL1nbxBHcxMkxUUJAVKBSmlh3
BPjYJhXBNRvW/gamjaO+LoStXI+0vO4aOhkR0tLqA9/zQFM9uVPu6InS0N98oMaL
azyxnXuqEanCN7yWfKHKxmkKiVMB1RMaE+2TYQBKPfFukiX2vv3qByVez8qYGa98
80x6fkrqFbPoJ2oDXEGGD0W7fkv1pZV/1XCuXV/qKz3htD3AQDuLijqt6sM9Oe7Y
Lsv5lqTb5DK6g2N9xvhTz64Z+j9bf44fbMReg3ub3GXlf9rFT8eDYfyYLJgWJ/1h
YZximth9mQENBFaTa+4BCACxyJ3oTNhz5oJOCu70mrxFqj/uqDfNm2K8Prr0CQ2I
7yXijfTZGVIjURIzp+Zhmc1LhZYlNwwI9ivFFvLoS9kH2rkx9EaIuP3ljtxQskRF
rX4BepR9/EvIoi7tUuOEqCy2pRy/y7Rc7s3Qbu/sPQ17wvRQqzTKsvoh9wxat699
0l1MFjlF/xBOD4Qb9LJGzc6Y8SLEEs7l/vAesL0viOME1hVQk+fG0KFosI32aeNn
nLHPZbLiZ2YETvI5nROMhleSDusqUpVxXzkIBcVLbCyeJooRsZAhJ6AB8qvhOXx2
xTBBgMpwaE/DHF6ZkvmsVB6lRNqMLjGeLOkmqx1vjZynABEBAAG0IkJodXNoYW4g
U2hhaCAoa2RlKSA8YnNoYWhAa2RlLm9yZz6JATcEEwEIACEFAld3rtICGwMFCwkI
BwIGFQgJCgsCBBYCAwECHgECF4AACgkQ/geEEX+84R1tfwf9GSACMGPFi9AArBwF
haYUKB4BJqNgCSRvQJ7gtG6YAaW+o919AtmpO+nq0JtvrSXQVLbJ1jxEMXsNJnvZ
ByiACm91u8z/LzMoI5C6RK13eGTTBr57LAE8lXI0xhkiSwQUAPQWJXumE1evoHEx
HrAi+z6aLa6QXwyqmP5amwked6S6R9GxGI2c+UPm9sVh4Lb1L/pEzeCdt7/1R1ba
AQ+weI1cVbfd4b9Qc5r/baq41CesZKz29UgorqiLyBXlWLUCClAXB/nrbAh7hR4p
DhSsIExSTp8gBnBTpKc2NAzGZTxopcvi/SOAxkdFlfkBewXuvHOxg0S8s8z7Owae
ckbj7bQgQmh1c2hhbiBTaGFoIDxiaHVzaDk0QGdtYWlsLmNvbT6JATcEEwEIACEF
AlaTa+4CGwMFCwkIBwIGFQgJCgsCBBYCAwECHgECF4AACgkQ/geEEX+84R3CQggA
mSPWL+WBizj5WIcSZ2Ox1jCNnCcZ73K84s7ZSd83mq6fgi4O4/JqoZCMCU2YzMuo
7Cs/h1UPXkARgf/bPFi7XKvEytQd0lOSUSubn27ederXfUuhUo5FNneiyYBX9Ri1
RjOPv5oE3cmYWM34Xvl/O6ucRJ28s8Z9GuWG6NChbbHdkDIhulCzWWiMtIQXG7zG
WRdjcqRItGVSjEaCdyWEL6i//5n0TiM+PPidmFO4A56blLCHrIe6MPW/fAiWBzWp
TxTUpn66XC3AMBWdLT/5ZCNea1qXY+I/TBwIiBl1mKFN1j945j216mnX1IHBSR01
yrMxsBnJ+Hx3i32OxhEfjrQyQmh1c2hhbiBTaGFoIChteWtvbGFiIGFkZHJlc3Mp
IDxic2hhaEBteWtvbGFiLmNvbT6JAU4EEwEIADgWIQQKrHdbtkN6jZr3o6z+B4QR
f7zhHQUCW4T3zwIbAwULCQgHAgYVCgkICwIEFgIDAQIeAQIXgAAKCRD+B4QRf7zh
Ha3OB/0QBQ8tc6WukC9ubRd5A1vEe5tSWvzJEB25mc+YfXj3eha9ZhGWSNF7iHQ2
78aKgyn4HS/Mve+A+w7ZQWtGK1sjxC1E7qn1U1Xx5BoadbvEfN8E9Vun0NPLa/FX
tz6gTnGPOkgJ6NjQuEy6aKT9lGbHuxXBLPfGfEQrT16ny0+Nc3Is1cSIWsmyF59v
ZTH9Z8uJu2C04lyMkE6huTdbLm6YAFzN3U2B/96ZG/9GWr1EImuVg9z7vUIlENbG
/ARHbdGdTqwKzjLPMhMRmSQt9pjOA0K2/o9y7t6JgQiMC1DPl21INZHmYES9dlfy
EiaLjVYkVunL/tJHXO9RIoqWx5nPuQENBFaTa+4BCAC8D6XyewOHX+nTc4mBQfLm
rmNJu6RX7kY/cwvAsskevOTNPzgJJtnUJQI1iABWI7U88afjAvU1wzYrBfEfQ43h
1cPw6NMY4/cmHe8YimCgk8cNYKGS0sM3+YJ8hNTSGxKJa7Y3RDxDLK9fSqG1xa6U
RcctNT57rau7xUtVExFpN0qGeTtMAOLDp36wY+jSYBpVZ7/Z/j0SDQf9ShU0G2OZ
MKsZvcH1KadOVW4kT27ISHN7EJbjdMPCmZytJ+5Sxi9PFHYCr/nR1qBY/j0ouKS7
1uShzcssz5WgnkmP87fvsfpfCQJl5SkiPavddodZoBCRRKwqQnV7ns3JFmh7U2+l
ABEBAAGJAR8EGAEIAAkFAlaTa+4CGwwACgkQ/geEEX+84R040gf9G+I/AM1ub7UA
hPAQPZ25SdIaTH96MV5cmWsucTnGUy1XDh8I0hZaEB/kkWHOrmbKyqhg/NtgEqXt
P/kqJX5ruTt9AN3TSlxJ+IrCywCm33kS7yPRADgwNshoCf/HH3VujccN4KfDjIui
jLSZbfIbG6cGo2bgqz6t4p9NaZofcQhFfPwAgfv3IL1DNFqZvUohDPy/j5eU7IdD
jytLnhGUZTfSrzhWXkCZybKROW05zScMRd5uL3b+in/Zu8rgeE/lLF8nmD42YJ05
8n+72LjR7P5DqrblbAhLiQg8CBbrIFJozQUyUDnTzwsGRFuQAx7brypsOSqWfYcV
EqXxiJwdrLkBDQRaK92CAQgAuuXV+Yh0qYO6WQZLnE+X0BivPlRY1vH4B2zDgDBY
0qrbIdPl4/pvbwQLk/Vo2yVZqHfoGhbqnBkXZFpzV9QMOnEdrrMo8unm/02f7buE
Z56XkkKTpelsl63Qu0qu2/ISpfxCxRFLGZdj+VLA0SWhe0ecwgR+91ZvcKE1byfz
G9+sbVY0v8WQq9Zfx0hUo/0Jf7+FAiUWIgmS6XHuCn+DYBTHrGcGEf+CU64+lfH5
CbGz42AKqsYzZwYWV4RarwNBVDuM6XdqlC9m4WcROos5qyV0XQ5sE/SByuHO1a5Z
azFFPbrnqiBtg1POQs4uQw4wU2RsEM+bGUIRNTFoIpjHsQARAQABiQJsBBgBCAAg
FiEECqx3W7ZDeo2a96Os/geEEX+84R0FAlor3YICGwIBQAkQ/geEEX+84R3AdCAE
GQEIAB0WIQSzyzZlUlQL4G7prZcRloxEkoyu/AUCWivdggAKCRARloxEkoyu/GVJ
B/90wdV5Bsb53X/ai1HdScE7dP+clhDjVEgU87601F7cntzeo9EASso2YLdkXnNE
4Gq8THUpXLk/PLTlum5z2OrOYbcfrzWU1kLRguDgVciqcyI+4ev5P5wchTrLrROX
7uyEGq5fTHYi7xEmolRGXFUEAcsWRGwS6DOq28sDSbho+LRLXyPBFVE6lTmXzjIa
w5pxPgMXHGPjb2vuHP3hcFS38CkbKgFgnvlCzeCea3y6rVs86xVUi/l1C/tAdTFH
kxbQQzyobNWOF55ujh12iWOPFqlaLXSJcSgRb6JBumPS3X4g3DEOeWLKOXgqXXWd
Tz9n925G1s9Zz5EqRGOPg5tUNpoH/iDhWtorPX9ypuWLPmJzq/e/6l7d1YY5p1FP
88fG+33LDOxP69pCqfIoS4h3xtIBtq6ZOD8veVhb4GXSX3o1/rHEur1wj8JdIKTi
yLQcc0bE/qqkU1z2wtPDnpDMiSp+K0XzuerrOkTR3Nvbjq1N3eAT7cp9u+t9jINB
e4L36+DzQZdwUGvi7ojMPTY2vKM6VZSHEKDmw1C4Ifp9oSEVAlQk2AslldLA/8hu
A3V752+CosVz4kO0g/fi1LqkTskFfRVO7Y1Zbs5N4qb/2rdXp4cYEmKNe/II+y9x
oCxyobBEZBECLHCZfIdO2sB4nt72Y+0/G52cW2Gz2yjbP0MaZp25AQ0EWivdvQEI
ALOgPIfaCxMoYYORHfLJsJ56uOGP6YchINfy7wGVvtNPvnbC4Xp6q8UPSijoukja
fw5ZPZFuBZ7E3Qq4Vx/eRTcHoYq40CahxFDmUvt6bnDCFlsMXNXCSOUtnhej5clM
jCtm7awtkOD25JQry3AmmxAeQv807LBciYy+/idRlav1sQyUOgchiS/nsSQX+lkt
jwXKks7Qj/3Oplu+D8jTig2qGdNUredkbgZhsVsdvitmuJuBq3Iaw2ilX4l69g9i
oxBi7481bmaLV1P2BtHsqUpmE7wpw4JdQ+NTBiAPuM+Oqo28mWTVoov5SH9QHOev
gVJKCfM7RfBj8zGVJ3H/DcsAEQEAAYkBNgQYAQgAIBYhBAqsd1u2Q3qNmvejrP4H
hBF/vOEdBQJaK929AhsgAAoJEP4HhBF/vOEd33QIAIV/Wuhv+KHYKkKzwzJYqEZE
KReFqSk91W+etHDf72mPB3J+IfokNYCSgEm4R/570p9uIBBccxLPwTvbJU7v9Utv
c0kFcu9txNWOge0W046qquRoWIwFZxbLwcSl8Xwlhitrt1TAZPrsIRxyzXzHeE9V
TIAWQftnjvRGp8KfdCXoLglMkb4KRF65pzMPf51hPSQ57b2VhmwZoh9Y4b5FM4cg
Kdoug2Ch/gPFWTd0KGWuSRs8xKnUugk3X0j089po81j1DTcMezAz9QZbSs1qM1Ph
xl/SaJEEwb/SP6PaGS9MPvfMpshuzz/St5LWesGCOJHMG6cWIm/QAFIuV7WWKpiZ
Ag0EYVWbOQEQAL2uhsuPhkyNn8SEduJimvb+L+5bfxPqo/mbCkAZ6Vrf81aGPOnZ
rqt+4tNvo61eSiZwyLDNVcGbZUKgXnPt/bdznIKTio8WdM1xjGaqXUxpGsjjH1lv
+JXqOK38WSI08Jz/z2S99ZUzLAJv/S44ZFvPD2UY1Af7ZsmQcsNLfw9+sAGKQ4p2
LvlTHWk6XrgZWcrGp9dIHrd314O0sQsRuO9s9F1klK4VMUuVH65kqK+wLHss+GlL
8Q/JbVKdX0nLxkCAwfPRVmeRmcLZbXm4zwU/oBFS3GVgym1S5Tv2IRFgp3THAIcl
PgYjc8UyMAwv9cfOTPNcmCRmbVgyPLZ00cpzTuCUDp5+qtvzYHOpanqZ+5SdgGWc
7njINTBR4Na5G9knA3G/SPfV4ANiVmg+SQ9fpRaprJ4Bw8QE+h+JqzFTDmYh8//c
cCwlwON/c6Pm1jITsQvKmpNY+9LZ8FgJbC+Kl/Gw5CYD3G+UJjYwaEC1M1x4lxvf
bhs4um7ADYZaazIfD5zdu8sPs8Np4tnuSOq7U0GqDAMRKA7uw+tYozgZpyWCv2wC
29+v++WQdEJNmGmW5m5b8ki6Kmtz079mKBP0D2XFtB7UKbRU80eT7MOX/A9O/skQ
Lk4Y8BjsbqzttAvGnsLsW6U5lyMpaacQFZVXU7uJ57xhlDm9lOZM0jZVABEBAAG0
JkpvbmF0aGFuIEVzay1SaWRkZWxsIDxqckBqcmlkZGVsbC5vcmc+iQJOBBMBCgA4
FiEE4KPrIC+OV1KOE+cv11dEg7tXsY0FAmFVmzkCGwMFCwkIBwIGFQoJCAsCBBYC
AwECHgECF4AACgkQ11dEg7tXsY1xkQ/9GGyd5XfSVCDhCPsl3+4WGGu8wdNq3DwX
XxsxavuD+xtDTPtx7BPxgz7Zbb0ULiTeBkcDwvB+ryDksAzwZu9qCCfsutO+CUuL
6Ff9TiJTsuirIfW2nJkQ8PTyqpSSMRHxt8t+UESUhKMZvvF4kxuFL7XS+3xBBCVb
sypFBCjRtgHp+guuZbdq/NnP+ZvYgvdEBaCjBAn2vEb6hb7eUUKNIa/Fdqr8EZwN
qOSr1R4MYJHdEc6OQNURfrG5LsPvorRjfZuBhuwPMeQMdGbm9HQtfFApQLn05ASg
0sJ050WVfibUubaxRr+9eeOuk48Am+KP4vAO39IHUbKAn+qK076uJO2BJubJNjzj
Ffh0CHg16eaTUkXemF/BreeYnNW7uiIK8pOxWt/yCclQ+rwyyBS5aBD2q7RRdZFs
WedyRWyPrEEa48iCuUaTZX1FOqJF4lOxT9F3KlXM7quyETItZLRMLPKAetmTchLi
k5FS3qK1SUlIJ29lENrcCE9SRC3ciyjRLyhlbM/7OVcy9gW8XWmC3OL1w+puAkni
5Anzny6rDSPCMUzcJjKtWstY1jaQ8g9Vt5MfoGHqdCnhDQpecO5txRtul3bEweW0
cQjqCZr0BOFr6784yNiBemQA/xQQJwXUIP7AgLhziltIWc6aFFqL3YyNsyRv3TmR
jNT/VLepn2e0IkpvbmF0aGFuIFJpZGRlbGwgPGpyQGpyaWRkZWxsLm9yZz6JAk4E
EwEKADgWIQTgo+sgL45XUo4T5y/XV0SDu1exjQUCZuHiYgIbAwULCQgHAgYVCgkI
CwIEFgIDAQIeAQIXgAAKCRDXV0SDu1exjb0KD/48PIMeooFkx82My6EgOCGvzdSW
itBCLNeRURHbq0oiNmWxWVI8ZdS0sPltaA/wgsfAhtT1JJa6CHwHmcqFw79ejmk/
64wdKMTEWbsxpbTSwqAQcyDzWx8jHGNzwBu08ym6gIptlRauyFO4SsFUGVfgYT52
T9vYXeOufmPiLVQePSK+Hw+lK1de6EDUa+ReKiWanfrVhgWhTgjMlB7qzJ2GVNsJ
w6D3B2kyK62udsfm9yGND/lhI4+W01MBkIrABk97wzUjDRwKLmNXawVU2YP42c7P
ZDIkNQJ4Jbo5pAIATDejcVlZ0x6h8bWyolYaatSXQSx5jsLmXCz7Z+UUkxSDQNkx
5j1Un0leuNFBAuDYSvxUhs5zqhU1G3go+PAXueqROCD9kIunPFb9Dpb1looW9WA3
k44fFsgT4/wlfK1FtzJL84YAUqTplhsPutIrwEMCcC8vRjRGV9/G2+AUjupns5SE
ZwKDwryS5gY9ttquZyBWMz+ACj5KPWcVK3W5wOGNW6XtXp7w+XC2bH6yvZeazjgk
+ZHWEtrNrcy3d+oWiZ5asJZ43YuFOrJJkCf2B1xeL+chTtU24HgYW8UJV1tHnrb5
Na15+9FVJi5fTlF7wfyFRtstlmnc+5m0/TzXrJd9CyJ/fACSU1kldcRD0qLfRhp5
zZd7Ofu8IMutBOZe0bkCDQRhVZs5ARAAlNfUevIOk5656VAssMAk1WSZGNiVaUpU
BmF43YAutSrdL4zAgO7HXJEqnxNKkyI8R5gwe/BdnKUnw5ihIHfBmHcTLlKk1ku1
FkQ90W7w1AUSxvyjIoPuhxnvjc8Tr/r8AnJ7zNywGT/5P1DG1QDmEBQEb5td+lDm
k56tQb7JwwDKDvlEu9jllV801nIGyS6C6tBynwqwNHwyp54dBzxkPufKj36FrmrW
cIPjutKCBNneai60sQD7lCY2lg9cpTZUm7p0DW4B5jNXiit+kVDTnNXwxj1kNRNP
nmbmWOR35xxQ5Ymea7CbCq6jhYQDXEbuwaTlhlUgaprPjY5AlDhsFO4q/Y4CAQ8X
Y7t/Lq4twQg0mD6w67LhT0iyGm/wbmhHG8y7IAAKKDGzBxctlgasNVrSWrRoYPp2
qCY4WsW3nGjoFNeNDm56kHUXdj6S5iEQM3uaBb4/Uy+jRL5JIVqDltzFB21f7IIp
bzeKbi/ifpYoKMG8IZ8vsn5NF7V2ZPZ1NP3p/VGFBb8kIMYvZfihOsMpdTe+ER7x
C7TzqetJTjAgfwgBfquQ91yOIPSzb95MggaeNBauV4lXDDjGpjcau73PPtiGks0Y
sknkOvYXXYSn+0Zu8eGY1t21cRbtAwEIuAkgLM9wPv4NM+Bg62Q6mcjctFcXF0xP
WWa4oTb6E70AEQEAAYkCNgQYAQoAIBYhBOCj6yAvjldSjhPnL9dXRIO7V7GNBQJh
VZs5AhsMAAoJENdXRIO7V7GNBGUQAIfTGyQgXW1WuYdptwAG2BvgTGbDnkhEkArs
tGzO8+1koX0mn3hhPyoSbgCmbQR6KSwNVQhe+Id7zcMA8QBvvKm8xsbrs1fk8dfL
8omN3VpX99C9cqaunzud37mUoDwdIM4wqA3CXkg4OxXU3KjM47psrN04bzgUxwdY
MM0FrnmfAksSr3d+CewkO21KcYw74GaSN4G3Vt+xddSlICxfh7Q9WzvUs07Pa3aR
qRXrEo6BdqZdgtKZc5QeNMYG/gluBi+09ud8dcSnownmrNhOCJpg9jjbjqqe0N9c
eOenEK/1qiXuwOJSA0Vc2tvzXdKhgQhCC5jJSDA/mKWXUL/ljv3ehr+ucLeDvrn4
7nSnCLCK8s+21QtvMzogMJlZpw4TpAGpAJCCVUzGvcchVbargX4/c/ZoOluyy8Pe
rQFV0+sipEER5ENv9+rgYLK5ds/pPphVpuCEtkRoA307a6uJ5fyxsMm/U9DA7hWf
BVD1DTytvGdYmFm9LU3WuUHOWgq2mXBa9GkeD2E6Ab7eZr61fkxr33Vc72vyY3Ec
LRZ8KEVKkpQUiaguFqmZpAe94tejJY709PuL9rqZrneCSsNik6MIWY2xi5QYKwDM
bg2Db/edz6CGyirg/bsHT5Aq5Li9V0LAQ1rB4FvQ0OKtGzm69GQcSVlMy4/+RMNY
hS8+TqEumQENBGMzNyoBCADRKOQGIpxiw09LGTfRyUGOQzu2+YoWarwkVAOVxF4z
cs6q/X0t/vStaXRA5N9ayutzLT203F5yhHLVyoGjxd/PDkYVgfEIOmEZx0+3qb32
BY7iTWqLUdzuWuHAtPm/EwocbpDlecz4lFH4H82kn1a1IUQaPJUO3R+FhbFUYTWN
L2FQdh6U4UxuCoEZ/A8WQn5+KT7D0JDCw3FHH5ADvdkp8c6Fx4bxxNnoNuHD7LQw
MbxVy7KlW4SSAMW2n3x9jARVXMjBMUn3GfFXSRVn/K7OdN87JLeGfnvyxg5TZsYq
tZTy80ORJg7d9uRqLTYTOS3yrApwrAk9bF9SEvtVvjMdABEBAAG0IENhcmwgU2No
d2FuIDxjYXJsQGNhcmxzY2h3YW4uZXU+iQFRBBMBCAA7FiEEOf+pPK6cavwhKtAC
AjJUSCBORSoFAmMzNyoCGwMFCwkIBwICIgIGFQoJCAsCBBYCAwECHgcCF4AACgkQ
AjJUSCBORSoN3wf/RKuupl3cz33/4UU44ZT5J/IhUli9cX+pKzYHBeQF7VOrX7wR
mgFIQnt2g+XgwauMnIgVwvobc5os0yg7OV4btsr+/9UEb4nIULmDiZ1Ui5I0CQ9X
5U7ANfrVU/agj0EHV1WcBRpr8oLTI8Vrmt7niClEh0a3DN1k+T5kBB3O995bVPki
9jyohJg3QO1HAhsqGxdryv3+MdU23BWedNR5pb7WKB7xMh0s8f/nodSNS1JqJgX/
9Qz6qFT7Z9PEOc7AeP0Ga6Ih8i+E2zZVxSV0Hm2No/nNrKuiAxzXJR94cg2O+roR
jXYKFG+KwH9EwG8U5YBL6pXVxbzG9hZq4uOw9rkBDQRjMzcqAQgAthy1slWWjx+e
09FFYKmTWFTEUowZndpZ0KgeihRpOlz7s1O6BrbDw0xF0UiBRkBQDg9SIoH5WZPy
2P9fWdf8xC6a2I+IMzaxDHfDgh9coRmY3I8a1QO/3x2grvxw0ptmoKVA7mWavQuq
WhIDpSVoEW+BYcYbIPk3rAAAVpEBcRou9nhnLLYFh2Qn0ZkZo+AUlQeJp+iZtjkZ
iqyFl3iKa+sHouiVv9qaU0tpfAyh1SCkTQGVs2UDWWj+pR1UDPyQ9Z4232u1FC8e
Ef5l0rErQEnK8awOng6EPOPSXB9kq38lTbKZKctcJEWcPILq8+uPOmQFfLYSEIEX
ns4lnH3+DQARAQABiQE2BBgBCAAgFiEEOf+pPK6cavwhKtACAjJUSCBORSoFAmMz
NyoCGwwACgkQAjJUSCBORSr1UggAoVfxzjeSqRfknWk/kyU/vnHFAomrvSqavs1y
VTcFBZNf6hnfqpanwiVT8MvzHs6mBjn2csM/dFN7DNRQSx+qj1pZ8445Jldos1js
U57fNycXoBv7CX53rVqrc3JKpXNtLBZ1EmYt/7u/h74emK4LREaKo+pTnkejnFSn
ixNabsrE96YDXBmC7G6bFbitYcjjXueraXDMbmHdIXBk6XR2GFpxJjVDF8pIRek1
loyrOJzkOihwebES/mY/9ZPOvc6JOEncIK9dfHO9011G1zad1FEZnb7hrIgcE6vv
RuDP7oRjfnEBp9W5UczbiQO4kEGY5IHW6sJzvViZqkFoHcg9+pkCDQRSKGtvARAA
l97GQd4YyD5Wl6LkCzA1+8gORXlXHLMmnaDZ6SeqtOGVEmG2Fl71ypAxCvQ/A7EO
3H7VnGn0KjcWpn5qkOX8l7W0LJlrctDK3JHE+KQOTmmZRmSIG4IpuFAzrUBdxGAr
cNjMKOF50q0La1r/All2NbMQrFX+P7cR5v1WdrPKZk9m9PqlSYFHit+NmNbGRaFb
QA3DAjArTEYtScGeQEbYUbCwdsvZeRsLEl99BbyMHxsxzo1lnOW87mhSGz065/Kc
gg/hTVrktTrYfCxw1e+jf32z5IKCpOGaor29vzXzpT4htrj5YQj1HdGaEkjuARca
Vv3ZAG4p+X1gxdeHFuLRPz/DNg6VJry7H64NSxssqpM2IvYWvh0FRx1AtpPJSPjh
CKF/j/+CTCtt464yXY27agkbLhAFBhbF103+F02jIukkCQmiMnVcvXoZ/X+vJAlb
fRQP4L+IduO8BZE0fkYhzMUWZsyOpzWzfKSgI7CpcIeE3c1OwA13z0oc2nwu3LOH
0t54W6hI/Kd9bfkmCv17CpeQkzIWQ70V5Yzw1X08iwbUDQtUI7fFKPsvQu2nwf1t
a4QF2+eQnSb720TflvnTDnxKTZyXDQqNaL/3XA1uF4QeGsdF3eiEdVwiENLiR6fX
toazdqvbRKzuw3qh5p6C/U1QZrI+0gMeuHOSi2TFrwMAEQEAAbQjSGVpa28gQmVj
a2VyIDxoZWlyZWNrYUBleGhlcmJvLm9yZz6JAjkEEwECACMFAlIobWYCGyMHCwkI
BwMCAQYVCAIJCgsEFgIDAQIeAQIXgAAKCRC7RjNQ1u8x7+tDEACRF1c9DVGJnuby
rF5Aqn9ChCCR3GS4ynTxmf21xCoARpbbh8edBlzxJ7HNf1+t/0wEcmKGNdaRZUVI
yXMCj2Uye6/CKbmBz0ynHjoRkVSX+imJynJKmKjWsqctRqT67K9pnCB5KIiUK3c3
GWrxd2u8dZUJpb5XhbWzIDwnR7AdvoT0ytuANbUA5gtwH0WriUQ2qsZK3tzmm0L4
EJ07qGXB94WYVaLrz4+26ja4O/v87Pm0yadGMGjIFkq7u8g7kiME1VPvzjkUwxk3
XcDVcFt5Gjct1beMX/SUt8WLYfL3XUyU8i/UKraf0hPG7TeWpPOvlmfjgMicmfgY
DXMyTz3h54GRG3AvIZA9oMbcsc9SX6+IayWCN4m7j3qZWBbzCtbkXTJU42dHKjnA
NTRj+5e8RVVaDaI6WzWW4VCLfJrsVqEJvoJvCBrpfVClV64D/tqiCHNbBpBIcxBJ
d6i5QceS95EHBRjCvqeSUNvyVeIFWTBOodycMZufEtCMgPBvzSyT0FUtjk1PtQow
e1VA47PiyjIw7CrcTzfC3KhOb0iXZLPVXZ8+A3Zbgq3iFt8MNj/Wvn+OnvZ6eFto
H5yfqmvrMisMmRxwMH+sd9WDqIpEf/vQhC54mA9F99dYmqYFJdkfgAaECqdqR+Lw
bNl8unPs5/BFgHGN+x6HNq5UXNx+pbQeSGVpa28gQmVja2VyIDxoZWlrb0BzaHJ1
dWYuZGU+iQI5BBMBAgAjBQJSKGtvAhsjBwsJCAcDAgEGFQgCCQoLBBYCAwECHgEC
F4AACgkQu0YzUNbvMe99NQ/7BqMpvVbZ8JlYrN313mNAcI70Upydrxrn/cDY40Dc
Ykm4etWceIFeMNUhi9abbTxI/91bmyyLV8LB/DNlgxZeYFuG+QBhhXQWwZT5R43C
TCCwnvbNWsnNB6XjCn/VZLmPd1nEzNnB0I/eqMQ8i8FhImkiKGER4m9vF9pmDx3L
UN9O5qfBxdxnhbWPfd+mYgHxFy8pFhdn+YkilyjCvLez+3YAwFEPgviH8mKUCxHB
lCjFaQpOGaEyLbYeen3usacKNT5ZS6F4M8uoGEF8KzpzP8N4/9YSUGpdqP4FFScy
4a2/8yqBMiIcVfm74BYknfwoQ5IrbMdan9BTG7NwAj4Gwi2I26/LBTBz0A08Ng5q
hgi8BBgIfyhEPkNh1S0vPIJUcFS6djtevtunZt39w4IhJZlt0H+IjIY//ihsllH9
3kZXYP5k5QXNL/ECoSUvGvj3seqDzoyKPfssrkpdgSvFb5vDC4uRRTNbi67DKNaZ
ZDXUylD6DUUwhC0RACL6tCApy4rdo8A0+DeSVlnAGZYWAGoO0dIJxDrd1QMQpBg0
nUtZjIJeZ6YHrLt0+5PpISBHL2lOPIOyCP6uJIGCb6fIlg8CXsPp+j52L9A47Zl6
FyEgyJJjhEmtT8uDPitvKJgbte9HrHtwity3qzWwSUp5WYKGFKkDDxrjBRNJgjm9
PvK0I0hlaWtvIEJlY2tlciA8aGVpa28uYmVja2VyQGtkZS5vcmc+iQJOBBMBCAA4
FiEE2BwMs463Je9mkcOFu0YzUNbvMe8FAl/yQJICGyMFCwkIBwIGFQoJCAsCBBYC
AwECHgECF4AACgkQu0YzUNbvMe9vSg/9EWDABoxvaYf59+nthX/oGzJk9YIZ6nPP
wlPqTY3jQtZxvDHKm0cfpaR7ZsZsax9Riq1vxszr1GW55g6aY3li15P6UdTHtNfJ
jqoqPVrxulfqugvRVqHzK6MdkK6oQb5H0F1GUZZZrnRhDlU3udNeSYz1rULrguAm
cbYeDvyvuWlNJ/lpqCuTy6Z89kZo8UxVOQmbwp9qjMftnv9FiFrWq0a6OuB/Wl9+
1SjOd5pOCv0QEGgrPw287MyEcDbLX+Dr2Qgdw4v/i5A4vFBR+5wzAlSurBmFIMai
3N2k7uG9UY7fhy7Z819zGpUhLngNp3Stv3TbuEr1j/pv9nzmks4irse5Ea6bR59l
bDZP93ZjnYJ9Z97AVC2/rykhX6bDhgiUgodhMBnwqH0v8okH89QvEh6hyLd+0//E
m6WjdNxXuDF/uXh7xV7kN1Idx+s+z0JClv6qQjKbycKiQQGhkqLalGFTw46tz9FQ
cNc4OAvuYSb97K3+i3wBHVQkPIfMzxfTsVz0hv8KJrVo7WFCk7YxW5M6Goct8vKY
1/xkWwlASlE6LkS9LsSK+oMMUdf+dOgR0aN3bFxfOPlRPAhnUTkZQTVFA3sdquq6
LpgK/g2haBkmm7C0NQnX4dfuYPCRJCvIJR+PEvWBYhEyonob0wqydqHayMLuqSTu
rtPwjkRBwUq5Ag0EUihrbwEQAKMqBoNzIZF4UJCarBLCqvg+ZlVsGh+AIYd2Lroz
pPrAncTqJ0lD7txzM0ImbMRa6v7E9kIK2PjCHoAdGbVtAaYmnCJGT2qYBsUmgGmb
+fCAgYL7l+TdQs6ikBo58jdNXslLzfptc26gdNIg3ieDCOQSVoqUpbNGoRUKi+WZ
BWe20Q5D3cS+x6wSVbPEP3LNHldkmgLFcVeG89Qz3cprGWyZwF8/V/+k7xbvgDQw
+l6oYWErAM6wr5F/FVQgW/oHcBcR1PZazmBqhS/2xtGqTZMtgyC0QrvMv7x4bboE
QKSYk374OFE6HPS5GlOfIEG8J3z+7ddx89IlSsMj7pbhSvkpa0RzqApl3IT8K4S4
i1h/YAnnMbv4Zv7g4/53DWsYNLVOJskaDwQtjwt3P2zR0iwa7d0F8G/x1OKLeK1e
AGMAID0k3AzD6/0iLOBbDD9pX1opzLK1DvU5DA1Z6Oz8xZ3BQP2Qn6dPjTF28Qhd
gvAsmkGR5AKbh3NWthWd79yq5qgfv4du1FGZjRh2xjmLdHZvzVR59OTTZYHDQrdX
rUpIxS76PqVgp36g4UwQfpj5tZFta5vt1/Z8xh3wmzFnMt9smvZwxkPWO/M+RrqX
ewrScKoxQ80ddB6kz4snQ64imFwdILmEYie66nmvuSzOeJfwvjXHw2KbviszJrzl
Ah/FABEBAAGJAh8EGAECAAkFAlIoa28CGwwACgkQu0YzUNbvMe/l+Q/+OoK3pMuZ
iZsEWtiKmaYJOTxOZjdBLngld4h9StYyo1PGRcBJABtFxg3D3vJwYF8XzQp0zGsh
d8VjVjFK19VnBg/7RMpZFkQ9whlbwUuFNF8puZ+4DYV1zgXy5/Od3skn/dDhehwq
d9U1qv48JoxaRu5780EleAqTFp/ix/VrCdtFbEf5Nk8Zh7aZRn7/804lOElo0sow
0tb+SUXdOGcXuOLZz9VH4pB2Qovx3rTFfuIg3KeLNDN/2OWlbUpwF6MwMd7hF0Jg
3IRRRMxvuJssqG4/pvylegARpM16cB/E8eeFOcE8boZJY9G5i2cMDdsaVX5Y2VrS
TXPWYJUvD0S7pbt2fG1UDk557qMmcT+/vUeV4Q2P0gNr4+5/8ORepZ6o8m/BbF69
qohJdhNPsQGulBJLvcxoFjzUx2ZprYgyrKoZTVuHgKYTL2Ragvuou70VVfZqGfvL
ng9KzK1XT+d7Yf1v0fXELX/7MMLaH+/REajmwvVK9/8svwgjTyPg49aqjGbBRCgC
1YqXHsSm6hoUHymMMGioA0nvJlR3PyW08KH9q5j8W5gTUFlYB8EVVBgetyZ5/Wn0
t0mBAUwM/3+EukwDN9FS9k6Oh/ryrXOGT7c0SEA+XVN0g1k+KhjLrAIEpaxuefgX
AqrYBBBe/yWzlB2y1LvPoPxdq2aQG7K+VfKZAg0EV81kPgEQAKjRgoJQSFNju/xV
lXDdywC2exFIVDXwbzF9gi3uYkQGu1+IYbiDbwSM15ZB83zAYhoB5EaXmdvuz1FG
nFdK1S7vX2MZfVn1Kvyn8k6YFLmR18C1gh30KXdWwZG9/hKaDUKWsS/q1D3uP53U
VjxB+Bb8ZLjpgE4R44VVBG1+Lti/2VmSIEWvM/Q2vslX27UaQGwWA2RW5iz/dENh
Qsi0HAYV6t247JAI63zX1C8cdJmReolbA1E4DqVzyBbfqUpsMehnWNKQOcNXRtbR
xfX/pYlLNZh1w+Jx4DW+P9UODQqvbdJVDU/I+8GKtPtOiKtCboqsiIodYtKDXnqG
3z8rYLUODKl/5gyx4xsdDFUusjanjOmbG7cHZKtKPciYzkU7RcZ3WDGf+rLA1UkN
AF9xied2SwPaL/38Szwj8Xo7KYFmXgdYG/HuLGbYk9eSbBU8QL+Umfd4IFvV8Bol
KWuge1oAS14Ja4Tn8yD+5gSHVR4Cy0/js3c/QHeXUTgJzDWd7b87UF2ydd5Rojdh
VjP1pmRWUvvLB1reH+ChErFzVvXxuaC78R1CZxMQyPb0HezMyl61Y23VltownN8P
D7P5KJDe2g5NSKoy5ar6X4krR1VTM6+kaEZUe/mb0K0kU/rvWK8RziK3SElEfmR1
b1o1t4bSD1PEdCpAwkil4u9GrlYrABEBAAGIdQQQFgoAHRYhBOk/24GEriQcNFzi
NcIf+f3IeqlvBQJbcyVNAAoJEMIf+f3IeqlvY70A/Rw6pI//tE8uk59n1yTkCauM
a1ykDwfZiUCpo62k6avWAP4466XrMwU7Ae7FGJ3tD2ujXCwGZuf42AoMx3R58s5f
A4h1BBAWCAAdFiEEUyIEQVEcrkO9qVIGf4PC/YQ2WzgFAlt6eaIACgkQf4PC/YQ2
WzgbMgD/c6dVUaMHCUvQyqN4zKdavOext+qZy620xN5bd/RQ95oBAOLxZBFg9d9A
XpQbfw6heIDgGL48dv721wFbXSbo/GIItCFBbGJlcnQgQXN0YWxzIENpZCA8YWFj
aWRAa2RlLm9yZz6JAlQEEwEIAD4CGwMFCwkIBwIGFQgJCgsCBBYCAwECHgECF4AW
IQTKJixsg95NL7KKMyo6ak24Oeqm1wUCYv52/wUJDRPXIAAKCRA6ak24Oeqm1zks
D/95HdsLbCMlQWImftxAY0wUNVLTvt7+9rjpt/unyCqdtD9uS7J6Tfldmd2zPxIJ
FxpDx3AK5gJGAl8hBuARBTG6mzDSyohy0ldLAroab2zKn/hGfnAlxZtsa8DGmNhK
Kb8zEyKraM2grdc2bCF/sQ5yKmC0THAQwMBjLHoszKYV+y/R34o1nZZaufPrNWMP
d3hmiyCl5vzmRDQJatmkDvueYyPMt3FfJovWtixWFHsdnQ72l2kelkhpNc51RpgZ
6lCm9ghWWTLvOEPhR5tpYQ+CykPatmzhLXUthnfTCphQNf6nX7jjllq7Sd4MaTAm
nj0yfoTyHjdqPAYv26dMbBlR2lAxXz2SoyQZVHgGQeEW4nll6Xej25d1yKnOXwO4
g3RBt/dv4Q8IQKHyDZY5hJotg2OrA1hL9zsb+6lKjMr0UEJa8lhhwSKhlVzD0fdr
OaP7pJUfjyd0CrPrlrgdNoo4eV0bXV5kuFKfCgmwRHKWyJKDc1CmnJReFMJQGfFM
iuOyvYhVhUxNBzS7sV3IF28r1n1iKN9eGSgcBjAVW2LKaq0ThW1QXWcWT7vudcXj
bq9kQuOTh7fBEM47wHhyqhLP5TOIBBaIxW2x87Ag4i2HKUM2PsV+j6rzMwiCfzIN
US+IEfUTX52Mc3JUKCqOrqVlNJ1d/4+mkshlzwQA2oFzEQ==
=NMEc
-----END PGP PUBLIC KEY BLOCK-----
